!!!!SEGMENT: pl-kk--kk-i-382--039_anonim--psalm-xviii.krn
!!!cenid: 18xx:1526
!!!COM: Anonim
!!!COM-rismid: pe30004985
!!!CDT:
!!!CNT:
!!!OTL: Psalm XVIII
!!!PDT:
!!!AGN: Sacred
!!!SMS-siglum: PL-Kk
!!!SMS-shelfmark: Kk.I.382
!!!SMS-shelfwork: 024 W
!!!SMS-variant:
!!!SMS-altvar:
!!!NIFC-rismid: 1001140385
!!!URL-scan: http://repozytorium.nifc.pl/skany/pl-kk-nut--i-382
!!!ONB-nifc: UWAGA: obsada: S (T 1) (skan 0036); A (B 1) (skan 0180); B 2 (skan 0262)
**kern	**text	**kern	**text	**kern	**text
*part3	*part3	*part2	*part2	*part1	*part1
*staff3	*staff3	*staff2	*staff2	*staff1	*staff1
*Ibass	*	*Ialto	*	*Itenor	*
*I"Basso II	*	*I"Alto vel Basso I	*	*I"Soprano vel Tenore I.	*
*I'B 2	*	*I'A (B 1)	*	*I'S (T 1)	*
*clefF4	*	*clefF4	*	*clefG2	*
*k[f#c#]	*	*k[f#c#]	*	*k[f#c#]	*
*D:	*	*D:	*	*D:	*
*M4/4	*	*M4/4	*	*M4/4	*
*met(c)	*	*met(c)	*	*met(c)	*
=1	=1	=1	=1	=1	=1
*2\right	*	*2\right	*	*2\right	*
!LO:TX:a:t=P:problem:all\right	!	!LO:TX:a:t=P:problem:all\right	!	!LO:TX:a:t=P:problem:all\right	!
!LO:TX:a:t=P:problem:w źródle ta adnotacja zapisana nad pierwszą pięciolinią tego utworu	!	!LO:TX:a:t=P:problem:w źródle ta adnotacja zapisana nad pierwszą pięciolinią tego utworu	!	!LO:TX:a:t=P:problem:w źródle ta adnotacja zapisana przed pierwszym taktem, na pięciolinii i częściowo pod pięciolinią	!
!LO:TX:a:i:t=Psalm XVIII \nwiersz \nKochanowskiego.	!	!LO:TX:a:i:t=Psalm 18. \nKochanowski	!	!LO:TX:a:i:t=Psalm XVIII \nwiersz Kochanowskiego	!
2D\	Bo-	2F#\	Bo-	2dd\	Bo-
4D\	-że	4F#\	-że	4dd\	-że
4D\	nie-	4F#\	nie-	4dd\	nie-
=2	=2	=2	=2	=2	=2
2C#/	-bio-	2G\	-bio-	2ee\	-bio-
2C#/	-sa	2G\	-sa	2ee\	-sa
=3	=3	=3	=3	=3	=3
4D\	świad-	4F#\	świad-	4ff#\	świad-
4D\	-czą	4F#\	-czą	4dd\	-czą
4G\	o	4G\	o	4dd\	o
4GG/	Twej	4G\	Twej	4ee\	Twej
!	!	!	!	!LO:LB:g=original	!
=4	=4	=4	=4	=4	=4
2AA/	mo-	2F#\	mo-	2dd\	mo-
2AA/	-cy	2E\	-cy	2cc#\	-cy
!LO:LB:g=original	!	!LO:LB:g=original	!	!	!
=5	=5	=5	=5	=5	=5
2D\	że	2D\	Że	2ff#\	że
4D\	Twych	4D\	Twych	4ff#\	Twych
4D\	rąk	4F#\	rąk	4ff#\	rąk
=6	=6	=6	=6	=6	=6
2C#/	dzie-	2F#\	dzie-	(<4ff#\	dzie-
.	.	.	.	4ee\)	.
2C#/	-łem	2F#\	-łem	2ee\	-łem
=7	=7	=7	=7	=7	=7
4.BB/	wo-	4.F#\	wo-	4.dd\	wo-
8BB/	-ła	8F#\	-ła	8dd\	-ła
4BB/	o-	4G\	o-	4ee\	o-
4BB/	-krąg	4F#\	-krąg	4dd\	-krąg
=8	=8	=8	=8	=8	=8
2F#\	ca-	2F#\	ca-	2dd\	ca-
2F#\	-ły	2F#\	-ły,	2cc#\	-ły
!LO:LB:g=original	!	!	!	!LO:LB:g=original	!
=9	=9	=9	=9	=9	=9
2D\	Dzień	2F#\	Dzień	2ff#\	Dzień
4D\	mó-	4G\	mó-	4ee\	mó-
4D\	-wi	4F#\	-wi	4dd\	-wi
!	!	!LO:LB:g=original	!	!	!
=10	=10	=10	=10	=10	=10
2C#/	dnio-	2E\	dnio-	(>4gg\	dnio-
.	.	.	.	4ff#\)	.
2C#/	-wi	2E\	-wi	2ee\	-wi
=11	=11	=11	=11	=11	=11
4.D\	noc	4.D\	noc	4.ff#\	noc
8D\	po-	8D\	po-	8ff#\	po-
4BB/	-wia-	4E\	-wia-	4ee\	-wia-
4BB/	-da	4E\	-da	4dd\	-da
=12	=12	=12	=12	=12	=12
2AA/	no-	(<4E\	no-	(>4cc#\	no-
.	.	4D\)	.	4b\)	.
2AA/	-cy	2C#/	-cy,	2a/	-cy
!LO:LB:g=original	!	!	!	!	!
=13	=13	=13	=13	=13	=13
2D\	Jak	2F#\	jak	2ff#\	Jak
4D\	ma-	4G\	ma-	4ee\	ma-
4D\	-ją	4F#\	-ją	4dd\	-ją
!	!	!LO:LB:g=original	!	!LO:LB:g=original	!
=14	=14	=14	=14	=14	=14
2C#\	śpie-	2E\	śpie-	(>4gg\	śpie-
.	.	.	.	4ff#\)	.
2C#\	-wać	2E\	-wać	2ee\	-wać
=15	=15	=15	=15	=15	=15
!	!	!LO:N:vis=2	!	!	!
4D\	Naj-	4D\	naj-	4ff#\	Naj-
4D\	-wyż-	4D\	-wyż-	4ff#\	-wyż-
4G\	-sze-	4G\	-sze-	4dd\	-sze-
4GG/	-go	4G\	-go	4ee\	-go
=16	=16	=16	=16	=16	=16
1AA	chwa-	(<2F#\	chwa-	(>2dd\	Chwa-
.	.	2E\)	.	2cc#\)	.
=17	=17	=17	=17	=17	=17
!	!	!LO:TX:a:t=P:problem:w źródle ta adnotacja zapisana za ostatnim taktem, na pięciolinii	!	!	!
!	!	!LO:TX:b:i:t=9.12/5 1891 \nFlasza	!	!	!
!	!	!LO:TX:a:t=P:problem:"-ły" poprawione ołówkiem na "-łe"	!	!	!
1D	-ły.	1F#	-łe.	1dd	-ły.
==	==	==	==	==	==
*-	*-	*-	*-	*-	*-
!!!system-decoration: [(s1,s2,s3)]
!!!RDF**kern: > = above
!!!RDF**kern: < = below
!!!EED: Antoni Szymański
!!!EST: 2021-02-08
!!!ENC:Berenika Jozajtis
!!!END:2021-01-29
